X:1
T:The Ludlows - Legends of the Fall
T:The Ludlows - James Horner
T:(A disfrustrar)
C:James Horner
%%score { 1 | 2 }
L:1/8
Q:1/4=96
M:3/4
K:D
V:1 treble nm="Piano" snm="Pno."
V:2 bass 
V:1
 x x x"^La4" A"^La5" a"^Sol5"g |"^Fa♯5" f3"^Re5" d"^Sol5" g"^Fa♯5"f |"^Mi5" e4"^Re5" d"^Mi5"e | %3
"^Fa♯5" f3"^Mi5" e"^Re5" d2 |"^Sol4" G4"^Re5" d"^Si4"B |"^La4" A3"^Si4" B"^La4" A"^Sol4"G | %6
"^Fa♯4" F3"^Sol4" G"^La4" A2 |"^Si4" B6 |"^Do♯5" c3"^La4" A"^La5" a"^Sol5"g | %9
"^Fa♯5" f3"^Re5" d"^Fa♯5" f"^La5"a |"^Si5" b4"^La5" a"^Fa♯5"f |"^Mi5" e4"^Re5" d"^Mi5"e | %12
"^Fa♯5" f4"^Mi5" e"^Re5"d |"^Si4" B4"^La4" A"^Sol4"G |"^Fa♯4" F3 x x2 | %15
 x3"^Re4" D"^Fa♯4" F"^La4"A |"^Do5\nMi4" [E=c]4"^Si4" B"^Do5"c |"^Si4" B4"^La4" A"^Sol4"G | %18
"^La4\nRe4" [DA]4 x2 | x2 x"^Re4" D"^Fa♯4" F"^La4"A |"^Do5\nMi4" [E=c]4"^Si4" B"^Do5"c | %21
"^Si4\nRe4" [DB]4"^La4" A"^Sol4"G |"^Re4" D4 x2 |] %23
V:2
 x2 x4 |"^Re3" D,"^La3"A,"^Re4" D x x2 |"^La2" A,,"^Mi3"E,"^La3" A, x x2 | %3
"^Si2" B,,"^Fa♯3"F,"^Si3" B, x x2 |"^Sol2" G,,"^Re3"D,"^Sol3" G, x x2 | %5
"^Re2" D,,"^La2"A,,"^Re3" D, x x2 |"^Si2" B,,"^Fa♯3"F,"^Si3" B, x x2 | %7
"^Sol2" G,,"^Re3"D,"^Sol3" G, x x2 |"^La2" A,, x x4 |"^Re2" D,,"^La2"A,,"^Re3" D, x x2 | %10
"^Sol2" G,,"^Re3"D,"^Sol3" G, x x2 |"^La2" A,,"^Mi3"E,"^La3" A, x x2 | %12
"^Si2" B,,"^Fa♯3"F,"^Si3" B, x x2 |"^Sol2" G,,"^Re3"D,"^Sol3" G, x x2 | %14
"^Re2" D,,"^La2"A,,"^Re3" D, x x2 | x6 |"^Do2" =C,,"^Sol2"G,,"^Do3" =C, x x2 | %17
"^Sol2" G,,"^Re3"D,"^Sol3" G, x x2 |"^Re2" D,,"^La2"A,,"^Re3" D, x x2 | %19
"^Re2" D,,"^La2"A,,"^Re3" D, x x2 |"^Do2" =C,,"^Sol2"G,,"^Do3" =C, x x2 | %21
"^Sol2" G,,"^Re3"D,"^Sol3" G, x x2 |"^Re2" D,,"^La2"A,,"^Re3" D, x x2 |] %23

